cbre-ex.svg

<?xml version="1.0" encoding="UTF-8" standalone="no"?>
<svg
   version="1.1"
   viewBox="-1200 -1200 5760000 5760000"
   id="svg64"
   xml:space="preserve"
   width="5760000"
   height="5760000"
   xmlns:xlink="http://www.w3.org/1999/xlink"
   xmlns="http://www.w3.org/2000/svg"
   xmlns:svg="http://www.w3.org/2000/svg"><defs
     id="defs46"><mask
       id="c"><path
         d="M -1200,-1200 H 1200 V 1200 H -1200 Z"
         fill="#ffffff"
         id="path35" /><circle
         r="925"
         id="circle37"
         cx="0"
         cy="0" /><path
         d="m -306,-861 36,-185 h 540 l 36,185"
         id="path39" /><path
         transform="rotate(120)"
         d="m -306,-861 36,-185 h 540 l 36,185"
         id="path41" /><path
         transform="rotate(-120)"
         d="m -306,-861 36,-185 h 540 l 36,185"
         id="path43" /></mask></defs><path
     id="path364"
     style="display:inline;fill:#ffffff;stroke:#ffffff;stroke-width:1"
     d="m 0,-1044 c -251.27957,0 -267.5841,0.4235 -269.50195,7 -1.12276,3.85 -8.74239,42.30893 -16.93164,85.46484 l -14.88868,78.4668 -42.33984,16.95898 c -278.47088,111.54996 -491.84975,361.41272 -556.0918,651.16993 -23.52194,106.09345 -29.02836,230.71525 -14.58203,330.05665 4.08848,28.1147 6.73671,51.6509 5.88477,52.3027 C -921.86005,187.6791 -1036,289.048 -1036,290.6973 -1036,296.2956 -770.69287,752 -767.43359,752 c 2.00852,0 38.96654,-12.011 82.1289,-26.6914 71.48359,-24.3131 79.2706,-26.1845 87.37305,-21 4.89229,3.1304 25.77896,18.4776 46.41406,34.1055 79.26692,60.0318 167.25888,105.8973 265.51758,138.3984 68.85123,22.7739 133.1263,35.4147 228,44.8398 31.5589,3.1353 142.1897,-1.5354 184.6816,-7.7968 C 294.9545,889.0596 447.8117,823.5565 573.7129,722.291 588.9554,710.0311 603.7752,700 606.6445,700 c 2.8693,0 39.4791,11.7 81.3555,26 41.8764,14.3 77.7123,26 79.6348,26 C 770.8461,752 1036,296.2344 1036,290.7148 c 0,-1.7647 -115.3959,-104.2947 -127.5488,-113.3281 -0.8519,-0.6332 1.7963,-24.1548 5.8847,-52.2695 14.4464,-99.3414 8.94,-223.9632 -14.582,-330.05665 -64.299,-290.01461 -277.3735,-539.52088 -556.0918,-651.16993 l -42.3398,-16.95898 -14.8887,-78.4668 C 278.2443,-994.69107 270.6247,-1033.15 269.502,-1037 c -1.9179,-6.5765 -18.2226,-7 -269.502,-7 z" /><g
     mask="url(#c)"
     id="g55"><circle
       r="984"
       id="circle48"
       cx="0"
       cy="0"
       style="display:inline" /><path
       id="a"
       d="m -359,-913 36,-185 h 646 l 36,185"
       style="display:inline" /><use
       transform="rotate(120)"
       xlink:href="#a"
       id="use51"
       style="display:inline" /><use
       transform="rotate(-120)"
       xlink:href="#a"
       id="use53" /></g><path
     id="circle57"
     style="display:inline;fill:none;stroke:#000000;stroke-width:119"
     d="M 590.5,0 A 590.5,590.5 0 0 1 0,590.5 590.5,590.5 0 0 1 -590.5,0 590.5,590.5 0 0 1 0,-590.5 590.5,590.5 0 0 1 590.5,0 Z" /><path
     id="b"
     d="m 40,-345 v -455 h 93.5 L 0,-1059 -133.5,-800 H -40 v 455"
     style="display:inline" /><path
     id="use60"
     d="m 282.97922,206.25 394.04156,227.5 -46.75,80.97338 291.05058,13.88561 -157.55058,-245.11439 -46.75,80.97337 -394.04156,-227.5"
     style="display:inline" /><path
     id="use62"
     d="M -325.95845,136.96797 -720,364.46797 -766.75,283.4946 -924.30058,528.60899 -633.25,514.72338 -680,433.75 -285.95845,206.25"
     style="display:inline" /><path
     style="display:inline;fill:#ffffff;stroke:#ffffff;stroke-width:1"
     d="m -14.5,-530.89844 c -83.7797,-2.83451 -165.9618,23.51205 -239.51562,61.88282 -168.38357,92.32818 -285.01076,279.09412 -278.22795,473.04682 -4.17738,204.0162 128.21238,397.5222 311.77403,481.5834 73.57084,33.3772 155.33554,52.4849 236.33664,45.2875 58.6683,-0.5447 117.0956,-9.3351 171.5977,-31.7444 C 398.6969,422.5468 546.8964,199.8858 532.2922,-24.9583 525.7431,-238.99874 373.8908,-437.77515 171.3599,-505.23597 111.6911,-528.22172 48.8507,-532.68884 -14.5,-530.89844 Z"
     id="path747" /><path
     id="path1640"
     style="display:inline;fill:none;stroke:#000000;stroke-width:15;stroke-dasharray:none"
     d="M -352.20758,204.499 0,-7.8461 360,200 0,-7.8461 V -440 m 0,0 360,207.8461 V 200 L 0,407.8461 -352.20758,204.499 V -240 Z" /><path
     style="display:inline;fill:none;stroke:#000000;stroke-width:15;stroke-dasharray:none"
     d="m 80,40 v -360 l 200,115.47005 V 153.812"
     id="path1670" /><path
     style="display:inline;fill:#000000;stroke:none;stroke-width:15;stroke-dasharray:none"
     d="m 200,-80 c 7.36458,-7.364584 22.30164,-4.381634 33.34165,6.658371 11.04,11.040005 14.02295,25.977062 6.65837,33.341646 -7.36459,7.364584 -22.30164,4.381633 -33.34165,-6.658371 C 195.61837,-57.698359 192.63542,-72.635416 200,-80 Z"
     id="path1729"
     class="UnoptimicedTransforms"
     transform="translate(-1.6233729e-5,-1.6940835e-5)" /><path
     style="display:inline;fill:none;stroke:#000000;stroke-width:15;stroke-dasharray:none"
     d="M -80,38.3419 V -320 l -207.8461,120 v 365.69562"
     id="path1783" /><path
     style="display:inline;fill:#000000;stroke:none;stroke-width:15;stroke-dasharray:none"
     d="m -120,-160 c 7.36458,7.36458 4.38163,22.30164 -6.65837,33.34165 -11.04001,11.04 -25.97706,14.02295 -33.34165,6.65837 -7.36458,-7.36459 -4.38163,-22.30164 6.65837,-33.34165 11.04001,-11.04 25.97707,-14.02295 33.34165,-6.65837 z"
     id="path1830"
     class="UnoptimicedTransforms"
     transform="translate(-84.04101,75.958973)" /></svg>

<?xml version="1.0" encoding="UTF-8"?>
<svg width="5.76e6" height="5.76e6" version="1.1" viewBox="-1200 -1200 5.76e6 5.76e6" xml:space="preserve" xmlns="http://www.w3.org/2000/svg" xmlns:xlink="http://www.w3.org/1999/xlink"><defs><mask id="b"><path d="m-1200-1200h2400v2400h-2400z" fill="#fff"/><circle r="925"/><path d="m-306-861 36-185h540l36 185"/><path transform="rotate(120)" d="m-306-861 36-185h540l36 185"/><path transform="rotate(240)" d="m-306-861 36-185h540l36 185"/></mask></defs><path d="m0-1044c-251.28 0-267.58 0.4235-269.5 7-1.1228 3.85-8.7424 42.309-16.932 85.465l-14.889 78.467-42.34 16.959c-278.47 111.55-491.85 361.41-556.09 651.17-23.522 106.09-29.028 230.72-14.582 330.06 4.0885 28.115 6.7367 51.651 5.8848 52.303-13.409 10.259-127.55 111.63-127.55 113.28 0 5.5983 265.31 461.3 268.57 461.3 2.0085 0 38.967-12.011 82.129-26.691 71.484-24.313 79.271-26.184 87.373-21 4.8923 3.1304 25.779 18.478 46.414 34.106 79.267 60.032 167.26 105.9 265.52 138.4 68.851 22.774 133.13 35.415 228 44.84 31.559 3.1353 142.19-1.5354 184.68-7.7968 168.27-24.796 321.13-90.299 447.03-191.56 15.242-12.26 30.062-22.291 32.932-22.291s39.479 11.7 81.356 26 77.712 26 79.635 26c3.2113 0 268.37-455.77 268.37-461.29 0-1.7647-115.4-104.29-127.55-113.33-0.8519-0.6332 1.7963-24.155 5.8847-52.27 14.446-99.341 8.94-223.96-14.582-330.06-64.299-290.01-277.37-539.52-556.09-651.17l-42.34-16.959-14.889-78.467c-8.1893-43.156-15.809-81.615-16.932-85.465-1.9179-6.5765-18.223-7-269.5-7z" fill="#fff" stroke="#fff"/><g mask="url(#b)"><circle r="984"/><path id="a" d="m-359-913 36-185h646l36 185"/><use transform="rotate(120)" xlink:href="#a"/><use transform="rotate(240)" xlink:href="#a"/></g><path d="M 590.5,0 A 590.5,590.5 0 0 1 0,590.5 590.5,590.5 0 0 1 -590.5,0 590.5,590.5 0 0 1 0,-590.5 590.5,590.5 0 0 1 590.5,0 Z" fill="none" stroke="#000" stroke-width="119"/><path d="m40-345v-455h93.5l-133.5-259-133.5 259h93.5v455"/><path d="m282.98 206.25 394.04 227.5-46.75 80.973 291.05 13.886-157.55-245.11-46.75 80.973-394.04-227.5"/><path d="m-325.96 136.97-394.04 227.5-46.75-80.973-157.55 245.11 291.05-13.886-46.75-80.973 394.04-227.5"/><path d="m-14.5-530.9c-83.78-2.8345-165.96 23.512-239.52 61.883-168.38 92.328-285.01 279.09-278.23 473.05-4.1774 204.02 128.21 397.52 311.77 481.58 73.571 33.377 155.34 52.485 236.34 45.288 58.668-0.5447 117.1-9.3351 171.6-31.744 211.23-76.611 359.43-299.27 344.83-524.12-6.5491-214.04-158.4-412.82-360.93-480.28-59.669-22.986-122.51-27.453-185.86-25.662z" fill="#fff" stroke="#fff"/><path d="m-352.21 204.5 352.21-212.35 360 207.85-360-207.85v-432.15m0 0 360 207.85v432.15l-360 207.85-352.21-203.35v-444.5z" fill="none" stroke="#000" stroke-width="15"/><path d="m80 40v-360l200 115.47v358.34" fill="none" stroke="#000" stroke-width="15"/><path class="UnoptimicedTransforms" transform="translate(-1.6234e-5 -1.6941e-5)" d="m200-80c7.3646-7.3646 22.302-4.3816 33.342 6.6584 11.04 11.04 14.023 25.977 6.6584 33.342-7.3646 7.3646-22.302 4.3816-33.342-6.6584-11.04-11.04-14.023-25.977-6.6584-33.342z"/><path d="m-80 38.342v-358.34l-207.85 120v365.7" fill="none" stroke="#000" stroke-width="15"/><path class="UnoptimicedTransforms" transform="translate(-84.041 75.959)" d="m-120-160c7.3646 7.3646 4.3816 22.302-6.6584 33.342-11.04 11.04-25.977 14.023-33.342 6.6584-7.3646-7.3646-4.3816-22.302 6.6584-33.342 11.04-11.04 25.977-14.023 33.342-6.6584z"/></svg>
